X:7875
T:Swedish folk song
C:anon.
O:Sweden
B:Gustav Lange: Praktisk Violinskole, I. Del
Z:Transcribed by Frank Nordberg - http://www.musicaviva.com
F:http://abc.musicaviva.com/tunes/sweden/swedish-song-01.abc
M:3/8
L:1/8
K:Bm
F|B>BB|Bcd|d>cB|c2e|f>gf|ecd|d3|c2F|
B>BB|Bcd|d>cB|c2e|f>gf|ecd|d3|c2f|d>dd|d>ef|
f>ed|e2f|d>dd|d>ef|f>ed|e2f|d>cB|c>B^A|B3-|Bz|]
W:
W:
W:  From Musica Viva - http://www.musicaviva.com
W:  the Internet center for free sheet music downloads.

